src/images/mediaLogos/darkTheme/FutureVehicle.svg

<svg width="92" height="19" viewBox="0 0 92 19" fill="none" xmlns="http://www.w3.org/2000/svg">
<path d="M20.5927 2.86002H37.2506C37.7797 2.86002 38.0106 3.00563 38.1159 3.39864C38.2343 3.82716 38.0082 4.20596 37.5738 4.28409C37.3778 4.31273 37.1797 4.32343 36.9819 4.31605C26.1228 4.31605 15.2642 4.31605 4.40591 4.31605C3.79272 4.31605 3.23991 4.42259 2.78179 4.8665C2.58428 5.05096 2.42615 5.27347 2.3169 5.52065C2.20765 5.76783 2.14956 6.03455 2.14611 6.30477C2.12835 7.08369 2.14611 7.86379 2.13546 8.64271C2.13546 8.87236 2.22424 8.92681 2.43376 8.92444C3.15349 8.91497 3.87322 8.91734 4.59295 8.92444C5.12919 8.92444 5.42158 9.40742 5.19311 9.89158C5.15592 9.98328 5.09094 10.061 5.00728 10.1139C4.92362 10.1668 4.82551 10.1921 4.72671 10.1863C3.98804 10.1792 3.24701 10.197 2.50834 10.1863C2.22424 10.1804 2.13427 10.2751 2.13546 10.558C2.14374 12.8072 2.13546 15.0563 2.14493 17.3055C2.14493 17.6334 2.07272 17.8891 1.75665 18.0252C1.38613 18.1862 1.0097 18.1791 0.71139 17.9068C0.593014 17.7956 0.540927 17.5576 0.539743 17.3765C0.530273 14.1614 0.527906 10.9459 0.532641 7.73002C0.532641 7.25652 0.532641 6.78301 0.532641 6.30951C0.558684 4.83336 1.63472 3.39982 3.05405 3.00444C3.43693 2.91043 3.83069 2.86822 4.2248 2.87897C9.67958 2.86239 15.1355 2.85608 20.5927 2.86002Z" fill="#A0CEE0"/>
<path d="M62.144 10.2019C62.8223 9.1744 63.7397 8.71629 64.8856 8.82874C66.0694 8.94712 66.9229 9.61477 67.5065 10.6399C67.8358 11.237 68.0024 11.9102 67.9894 12.5919C67.9894 14.1699 67.9894 15.749 67.9894 17.327C67.9894 17.8691 67.7266 18.0479 67.1928 18.0775C66.6589 18.1071 66.3772 17.8253 66.376 17.3092C66.376 15.7407 66.376 14.1723 66.376 12.6038C66.376 11.6568 65.9427 10.9631 65.1176 10.5073C64.044 9.91544 62.7833 10.5073 62.3678 11.4946C62.2261 11.823 62.1478 12.1752 62.1369 12.5327C62.1121 14.1403 62.1263 15.7478 62.1251 17.3554C62.1251 17.8005 61.8232 18.0787 61.3249 18.0751C60.862 18.0751 60.5211 17.8171 60.5234 17.3589C60.5353 12.9688 60.5377 8.57897 60.5306 4.18958C60.5306 3.56455 61.0976 3.20824 61.6835 3.46393C61.8249 3.51168 61.9461 3.60557 62.0277 3.73053C62.1093 3.85548 62.1465 4.00424 62.1334 4.15288C62.118 6.03625 62.1251 7.9208 62.1263 9.80535C62.1251 9.91899 62.1357 10.0314 62.144 10.2019Z" fill="#ECECEC"/>
<path d="M87.9009 13.9862C87.2202 13.9862 86.5396 13.9933 85.8589 13.9862C85.6139 13.9862 85.531 14.0786 85.5286 14.3165C85.5097 15.8732 86.4378 16.7373 88.0063 16.8746C88.8124 16.9456 89.5274 16.6959 90.1927 16.2567C90.4211 16.1064 90.6733 16.0543 90.9112 16.2567C91.1491 16.4591 91.3113 16.7136 91.1847 16.9788C91.0528 17.2566 90.8436 17.4905 90.5821 17.6524C89.6351 18.1788 88.5383 18.3706 87.4688 18.1969C86.6023 18.0785 85.8116 17.7956 85.1522 17.2215C84.5201 16.6746 84.0773 15.9986 84.0217 15.1475C83.959 14.1875 83.8797 13.2192 83.9459 12.2627C84.0643 10.6054 85.2836 9.20976 87.0486 8.9008C88.5105 8.64511 89.7452 9.07126 90.6839 10.2124C91.0284 10.6135 91.2674 11.0942 91.3792 11.6109C91.491 12.1277 91.4722 12.6642 91.3243 13.1718C91.2826 13.3776 91.1725 13.5632 91.012 13.6986C90.8515 13.8339 90.6499 13.9111 90.4401 13.9176C89.5949 13.9697 88.7485 13.9898 87.9021 14.0241L87.9009 13.9862ZM87.5458 12.8889C88.1069 12.8889 88.6692 12.8782 89.2314 12.8889C89.8991 12.9043 90.0056 12.4272 89.8967 11.9727C89.8849 11.9253 89.8588 11.8815 89.8505 11.8342C89.5712 10.3308 87.9364 9.70339 86.6473 10.3852C85.6517 10.9108 85.473 11.8484 85.5381 12.7457C85.5381 12.7977 85.6896 12.8782 85.7749 12.8806C86.3608 12.8948 86.9527 12.8877 87.5446 12.8877L87.5458 12.8889Z" fill="#ECECEC"/>
<path d="M55.6957 13.9862C55.0056 13.9862 54.3143 13.9945 53.6241 13.9862C53.4028 13.9862 53.3507 14.0573 53.3365 14.2739C53.2311 15.9525 54.4125 16.7681 55.7679 16.8782C56.4851 16.941 57.2027 16.7609 57.8052 16.3668C58.3474 16.0223 58.5154 16.0377 58.8481 16.426C59.1144 16.7361 59.0967 16.9516 58.828 17.2688C58.4728 17.6843 57.9993 17.8796 57.501 18.0347C56.6413 18.3043 55.7256 18.3414 54.847 18.1424C53.1601 17.7636 51.7396 16.5574 51.7514 14.545C51.7514 13.8939 51.7751 13.2428 51.7514 12.5918C51.678 10.9203 52.8085 9.55305 54.2373 9.04048C55.9289 8.43203 57.8443 9.05705 58.7486 10.5794C59.2139 11.363 59.3796 12.2082 59.1618 13.0996C59.0612 13.5151 58.7617 13.8702 58.274 13.9034C57.4193 13.9626 56.5611 13.9803 55.7052 14.0158L55.6957 13.9862ZM53.3661 12.8723C53.4466 12.8782 53.5235 12.8877 53.6028 12.8877C54.725 12.8877 55.8476 12.8877 56.9706 12.8877C57.585 12.8877 57.7496 12.6865 57.6892 12.1431C57.669 11.9611 57.6325 11.7812 57.5803 11.6057C57.1565 10.1437 55.4377 9.75784 54.3273 10.4527C53.417 11.0233 53.2536 11.8827 53.3661 12.8723Z" fill="#ECECEC"/>
<path d="M39.3666 13.9924C38.686 13.9924 38.0053 13.9996 37.3258 13.9924C37.0962 13.9924 37.0311 14.0647 37.0169 14.2967C36.9127 15.9539 38.0894 16.7542 39.4282 16.869C40.1202 16.9356 40.815 16.7725 41.4051 16.405C41.5189 16.3312 41.6375 16.2651 41.7602 16.2073C41.888 16.1364 42.0381 16.1171 42.1797 16.1534C42.3212 16.1898 42.4435 16.2789 42.5214 16.4026C42.7439 16.6973 42.7581 16.9672 42.5285 17.2383C42.1734 17.6621 41.6998 17.8705 41.1885 18.0303C40.3104 18.3075 39.3738 18.3422 38.4776 18.1309C37.2489 17.8503 36.2545 17.2099 35.7159 16.0285C35.551 15.6429 35.4567 15.2307 35.4377 14.8116C35.3928 14.0552 35.4212 13.294 35.4188 12.5352C35.4188 10.9419 36.2084 9.84218 37.5993 9.1769C39.5596 8.23936 41.9165 9.15323 42.6753 11.1183C42.9388 11.7516 42.9883 12.4536 42.8161 13.1177C42.6907 13.577 42.3888 13.8871 41.9023 13.9191C41.0582 13.9759 40.2107 13.9948 39.3643 14.0291L39.3666 13.9924ZM37.069 12.888H38.3522C39.1607 12.888 39.9692 12.888 40.7777 12.8821C41.2038 12.8821 41.3814 12.701 41.3696 12.2902C41.3596 12.0262 41.3146 11.7646 41.2358 11.5125C40.8984 10.4696 39.562 9.82561 38.538 10.1961C37.3661 10.614 36.8133 11.6143 37.069 12.888Z" fill="#A0CEE0"/>
<path d="M28.2528 12.1669C28.2528 12.9269 28.261 13.6868 28.2528 14.4456C28.2492 15.2847 27.9688 16.0992 27.4551 16.7627C26.9414 17.4262 26.2232 17.9016 25.4117 18.1153C23.2348 18.732 21.0318 17.1624 20.7181 15.1133C20.6716 14.8219 20.6463 14.5276 20.6424 14.2325C20.6341 12.7327 20.6424 11.2341 20.6424 9.73425C20.6424 9.31638 20.782 9.10449 21.1289 8.98493C21.5124 8.85116 21.9421 8.94349 22.1398 9.25009C22.2215 9.40429 22.26 9.57773 22.2511 9.75201C22.2594 11.3016 22.2511 12.8499 22.2582 14.3983C22.2582 15.3559 22.682 16.0887 23.5189 16.5373C24.6044 17.1186 25.9941 16.5693 26.4262 15.3938C26.5581 15.0356 26.6293 14.658 26.6369 14.2763C26.6606 12.7469 26.6452 11.2187 26.6476 9.68927C26.6476 9.1909 26.9246 8.92692 27.4383 8.92337C27.9521 8.91982 28.2528 9.20511 28.2539 9.70821C28.2547 10.5289 28.2543 11.3485 28.2528 12.1669Z" fill="#A0CEE0"/>
<path d="M13.5472 12.2842C13.5472 13.0241 13.5472 13.7639 13.5472 14.5038C13.5555 15.9977 12.8263 17.0713 11.5715 17.7745C9.57803 18.8908 7.04004 17.9248 6.24455 15.7716C6.10277 15.388 6.02557 14.9836 6.01609 14.5748C5.99123 12.927 6.00425 11.2804 6.00544 9.63257C6.00544 9.19932 6.31676 8.92232 6.79382 8.92232C7.24838 8.92232 7.60352 9.23246 7.60352 9.63257C7.60352 11.2792 7.60352 12.927 7.60352 14.5748C7.60943 15.7834 8.69258 16.8145 9.89646 16.7695C10.6931 16.7399 11.5739 16.0711 11.8059 15.2874C11.8874 15.0162 11.9301 14.7348 11.9325 14.4517C11.9444 12.8725 11.9385 11.2946 11.9396 9.71662C11.9396 9.33308 12.0876 9.10698 12.4131 8.98979C12.8061 8.84656 13.2335 8.91995 13.4406 9.20168C13.5101 9.31718 13.5438 9.45061 13.5377 9.58522C13.5507 10.4896 13.5472 11.3869 13.5472 12.2842Z" fill="#A0CEE0"/>
<path d="M47.2908 15.6203C47.4778 15.1303 47.6696 14.6414 47.8519 14.1489C48.2212 13.151 48.5846 12.1507 48.9551 11.1528C49.1919 10.5077 49.444 9.86487 49.6855 9.22091C49.7731 8.98415 49.9554 8.85394 50.1839 8.91313C50.4831 8.98635 50.7696 9.10406 51.0338 9.26234C51.2706 9.40676 51.2244 9.6885 51.1404 9.90749C50.745 10.9421 50.3319 11.9708 49.9246 13.0018C49.4511 14.2022 48.9776 15.4021 48.5041 16.6017C48.3633 16.9568 48.2248 17.3119 48.0969 17.6789C47.93 18.1453 47.4364 18.3714 46.9345 18.2305C46.6231 18.1417 46.4953 17.9156 46.3923 17.6481C46.0372 16.7295 45.682 15.8117 45.3269 14.8947C44.8534 13.6837 44.3728 12.4751 43.8981 11.2641C43.73 10.832 43.5749 10.394 43.4057 9.96194C43.2234 9.48844 43.2873 9.27299 43.7111 9.05163C43.8783 8.96924 44.0601 8.92057 44.2461 8.9084C44.6534 8.87999 44.7504 8.96758 44.8889 9.32745C45.2535 10.2685 45.5826 11.2215 45.9318 12.1685C46.358 13.3203 46.7924 14.4709 47.2233 15.6215L47.2908 15.6203Z" fill="#ECECEC"/>
<path d="M72.6816 13.5319C72.7325 12.8962 72.742 12.2546 72.8403 11.626C73.0166 10.5014 73.6073 9.62899 74.6739 9.19218C76.1146 8.6003 77.554 8.62042 78.9106 9.46918C79.3486 9.74263 79.4954 10.1191 79.2468 10.55C78.9982 10.9808 78.7307 11.0602 78.3294 10.7926C77.7755 10.4093 77.1071 10.2272 76.4354 10.2765C75.531 10.3381 74.8183 10.6944 74.481 11.5786C74.3885 11.8379 74.3396 12.1107 74.3365 12.386C74.3176 13.1353 74.3046 13.8858 74.3365 14.6351C74.3922 15.9515 75.0977 16.6736 76.4543 16.7765C77.2131 16.8346 77.8677 16.5812 78.4975 16.193C78.8905 15.9562 79.409 16.251 79.4693 16.715C79.5226 17.121 79.3001 17.3708 78.9958 17.5697C78.0713 18.1817 77.0438 18.3202 75.9666 18.2065C75.2326 18.1296 74.5461 17.9118 73.9613 17.4406C73.4918 17.0484 73.1423 16.5319 72.9527 15.9503C72.6662 15.1654 72.7408 14.3475 72.6816 13.5319Z" fill="#ECECEC"/>
<path d="M15.2478 11.0283C15.2478 9.50915 15.2478 7.99038 15.2478 6.47201C15.2478 5.9985 15.5414 5.7286 16.0326 5.73097C16.5464 5.73097 16.8435 6.01034 16.8435 6.48976C16.8435 7.21068 16.8506 7.93041 16.8435 8.65013C16.8435 8.85729 16.9074 8.92476 17.1134 8.9224C17.7751 8.91174 18.4357 8.91529 19.0962 8.9224C19.2125 8.92158 19.3268 8.95198 19.4274 9.01042C19.5279 9.06886 19.6109 9.1532 19.6677 9.25465C19.7246 9.3561 19.7531 9.47093 19.7505 9.58718C19.7478 9.70343 19.714 9.81684 19.6526 9.91558C19.6121 9.99964 19.5477 10.0699 19.4675 10.1175C19.3872 10.1651 19.2947 10.1879 19.2016 10.1831C18.5114 10.1713 17.8201 10.1831 17.13 10.1748C16.9062 10.1748 16.8435 10.247 16.8447 10.4637C16.8518 12.0913 16.8447 13.719 16.8518 15.3467C16.8518 16.2795 17.3502 16.5955 18.1066 16.6547C18.4001 16.6772 18.6985 16.6618 18.9932 16.6678C19.3945 16.6772 19.6751 16.9187 19.7035 17.2738C19.7378 17.7284 19.5401 18.0326 19.1045 18.061C18.1409 18.1226 17.1773 18.125 16.3155 17.5793C16.0669 17.4297 15.8536 17.2282 15.6901 16.9886C15.5267 16.7489 15.417 16.4767 15.3685 16.1907C15.2973 15.8163 15.2577 15.4365 15.2502 15.0555C15.236 13.7166 15.2478 12.3707 15.2478 11.0283Z" fill="#A0CEE0"/>
<path d="M82.3248 10.7384V17.3071C82.3248 17.8232 82.0454 18.0883 81.5198 18.0789C81.0132 18.0694 80.722 17.7829 80.7208 17.2905C80.7208 12.9208 80.7188 8.55155 80.7148 4.18268C80.7148 3.7873 80.89 3.55884 81.2274 3.43928C81.5648 3.31972 82.1034 3.4665 82.2454 3.71746C82.3071 3.86021 82.3331 4.01581 82.3212 4.17084C82.3259 6.35923 82.3271 8.5484 82.3248 10.7384Z" fill="#ECECEC"/>
<path d="M31.4566 10.208C31.8579 9.74276 32.2675 9.33555 32.8096 9.07275C33.411 8.78036 34.049 8.76616 34.6883 8.82535C35.0434 8.85849 35.2399 9.22901 35.2044 9.66819C35.1942 9.83111 35.1228 9.98416 35.0044 10.0966C34.8861 10.209 34.7296 10.2725 34.5663 10.2743C34.0857 10.2837 33.5992 10.2305 33.1458 10.4424C32.1467 10.9029 31.6069 11.7054 31.5762 12.7779C31.5264 14.2363 31.5229 15.6983 31.5762 17.1579C31.5986 17.8326 31.0517 18.2232 30.4386 18.0409C30.1568 17.9569 29.9745 17.7959 29.9414 17.494C29.9305 17.3962 29.925 17.2978 29.9248 17.1993C29.9248 14.7244 29.9248 12.2488 29.9248 9.77236C29.9248 9.07986 30.3983 8.75787 31.0494 8.99107C31.1747 9.02263 31.285 9.09711 31.3612 9.20157C31.4373 9.30602 31.4744 9.43385 31.4661 9.56283C31.453 9.77591 31.4566 9.99135 31.4566 10.208Z" fill="#A0CEE0"/>
<path d="M69.6318 13.4795C69.6318 12.1971 69.6318 10.9155 69.6318 9.63467C69.6318 9.16116 69.8922 8.93033 70.4012 8.92441C70.9102 8.91849 71.2298 9.19667 71.2298 9.63467C71.2298 12.2082 71.2298 14.7809 71.2298 17.3528C71.2298 17.7849 70.8937 18.0927 70.4131 18.0749C69.9727 18.0595 69.6116 17.8713 69.6223 17.3481C69.6483 16.0601 69.6318 14.7686 69.6318 13.4795Z" fill="#ECECEC"/>
<path d="M40.8071 6.89942C40.4519 6.88284 40.2767 6.67213 40.1631 6.4117C40.0341 6.11931 40.2199 5.90032 40.3998 5.70973C40.8733 5.21019 41.3469 4.69762 41.8689 4.2395C42.3175 3.84294 42.2974 3.35641 41.8689 2.96222C41.348 2.48871 40.858 1.97851 40.3726 1.46831C40.1832 1.27062 40.0258 1.03861 40.1962 0.730829C40.3418 0.465666 40.5431 0.294019 40.8509 0.354391C41.0112 0.389599 41.1585 0.469175 41.2758 0.584041C42.1258 1.4253 42.969 2.27445 43.8055 3.1315C44.0991 3.43217 44.0991 3.79914 43.8055 4.10218C42.9627 4.96081 42.1123 5.81154 41.2545 6.65438C41.1326 6.76802 40.9562 6.8201 40.8071 6.89942Z" fill="#A0CEE0"/>
<path d="M37.8934 6.89684C37.7685 6.89427 37.647 6.85556 37.5437 6.78539C37.4403 6.71522 37.3595 6.6166 37.311 6.50146C37.2529 6.3858 37.2331 6.25468 37.2544 6.12703C37.2757 5.99938 37.3369 5.88178 37.4294 5.7912C37.966 5.24667 38.5019 4.70174 39.0369 4.15642C39.4441 3.73974 39.4441 3.47458 39.0369 3.04842C38.5173 2.51336 37.9857 1.98304 37.4684 1.45034C37.1216 1.08811 37.1997 0.621708 37.6271 0.399161C37.8638 0.272498 38.1349 0.330503 38.3918 0.585012C39.044 1.2349 39.6939 1.88715 40.3414 2.54532C40.5344 2.74064 40.7344 2.92886 40.9191 3.13129C41.2091 3.44735 41.2293 3.74211 40.9369 4.04633C40.0846 4.931 39.222 5.80462 38.3492 6.66719C38.2332 6.78201 38.0461 6.82226 37.8934 6.89684Z" fill="#A0CEE0"/>
<path d="M70.157 0.906784C71.729 0.906784 72.9175 1.26191 73.9154 2.14382C74.222 2.41608 74.2611 2.68716 74.0468 2.93694C73.9048 3.10266 73.5544 3.18198 73.2561 2.91918C72.2333 2.01952 70.9998 1.81828 69.7048 1.96507C68.8904 2.04798 68.1228 2.38557 67.5113 2.92984C67.2485 3.16659 66.9454 3.15593 66.7513 2.93812C66.5359 2.70137 66.556 2.4291 66.8436 2.17223C67.7521 1.35273 68.9335 0.901506 70.157 0.906784V0.906784Z" fill="#A0CEE0"/>
<path d="M70.4105 7.88578C70.1961 7.89002 69.983 7.85156 69.7837 7.77263C69.5843 7.6937 69.4027 7.57588 69.2493 7.42604C69.0959 7.2762 68.9739 7.09733 68.8904 6.89986C68.8068 6.7024 68.7634 6.49028 68.7627 6.27586C68.7678 5.84551 68.9402 5.43403 69.2433 5.12848C69.5464 4.82294 69.9565 4.6473 70.3868 4.63872C71.3409 4.61386 72.0441 5.4567 72.0441 6.26758C72.0287 7.12936 71.322 7.9284 70.4105 7.88578ZM69.8636 6.28178C69.8636 6.61916 70.0873 6.84762 70.4046 6.84289C70.4784 6.8412 70.5511 6.82492 70.6185 6.79497C70.686 6.76502 70.7469 6.72201 70.7976 6.6684C70.8483 6.6148 70.888 6.55167 70.9142 6.48267C70.9404 6.41367 70.9527 6.34017 70.9503 6.26639C70.9526 6.1924 70.9397 6.11872 70.9123 6.04993C70.885 5.98114 70.8437 5.91871 70.7912 5.86653C70.7387 5.81435 70.676 5.77353 70.6071 5.7466C70.5381 5.71968 70.4643 5.70723 70.3904 5.71003C70.0554 5.71358 69.8565 5.93257 69.86 6.28178H69.8636Z" fill="#A0CEE0"/>
<path d="M70.4528 2.62207C71.33 2.6564 72.1752 2.88486 72.8689 3.52765C73.1198 3.7644 73.1636 4.08875 72.973 4.29946C72.7611 4.53621 72.483 4.52911 72.1917 4.29946C71.8544 4.01398 71.4529 3.81456 71.0216 3.71828C70.5903 3.622 70.142 3.63173 69.7153 3.74664C69.2963 3.8387 68.9068 4.03402 68.5825 4.31485C68.3232 4.54095 68.0154 4.53148 67.8189 4.31485C67.7285 4.20288 67.6861 4.05959 67.7012 3.91644C67.7163 3.77328 67.7876 3.64197 67.8994 3.55132C68.6097 2.89197 69.4644 2.64456 70.4528 2.62207Z" fill="#A0CEE0"/>
</svg>

<svg fill="none" height="19" width="92" xmlns="http://www.w3.org/2000/svg"><path d="m20.593 2.86h16.657c.529 0 .76.146.865.539.118.428-.108.807-.542.885-.196.029-.394.04-.592.032h-32.575c-.613 0-1.166.107-1.624.55a2.003 2.003 0 0 0 -.636 1.439c-.018.779 0 1.559-.01 2.338 0 .23.088.284.298.281.72-.009 1.44-.007 2.159 0 .536 0 .829.483.6.968a.474.474 0 0 1 -.466.294c-.739-.007-1.48.011-2.219 0-.284-.006-.374.09-.373.372.009 2.25 0 4.498.01 6.747 0 .328-.072.584-.388.72-.37.161-.747.154-1.046-.118-.118-.111-.17-.35-.171-.53-.01-3.217-.012-6.432-.007-9.647v-1.42c.026-1.477 1.102-2.91 2.521-3.306a4.406 4.406 0 0 1 1.17-.125c5.456-.017 10.912-.023 16.369-.019z" fill="#a0cee0"/><path d="m62.144 10.202c.678-1.028 1.596-1.486 2.742-1.373 1.183.118 2.037.786 2.62 1.81.33.598.496 1.271.483 1.953v4.735c0 .542-.262.72-.796.75s-.816-.252-.817-.768v-4.705c0-.947-.433-1.64-1.258-2.097-1.074-.592-2.335 0-2.75.988-.142.328-.22.68-.231 1.038-.025 1.607-.01 3.215-.012 4.822 0 .445-.302.724-.8.72-.463 0-.804-.258-.802-.716.012-4.39.015-8.78.008-13.17 0-.624.567-.98 1.153-.725a.665.665 0 0 1 .45.689c-.016 1.883-.009 3.768-.008 5.652 0 .114.01.226.018.397zm25.757 3.784c-.68 0-1.361.007-2.042 0-.245 0-.328.093-.33.33-.02 1.557.909 2.421 2.477 2.559.806.07 1.521-.18 2.187-.618.228-.15.48-.203.718 0 .238.202.4.457.274.722a1.599 1.599 0 0 1 -.603.673 4.818 4.818 0 0 1 -3.113.545c-.867-.119-1.657-.401-2.317-.976-.632-.546-1.075-1.222-1.13-2.073-.063-.96-.142-1.929-.076-2.885.118-1.658 1.338-3.053 3.103-3.362 1.461-.256 2.696.17 3.635 1.311a3.178 3.178 0 0 1 .64 2.96.931.931 0 0 1 -.884.746c-.845.052-1.691.072-2.538.106zm-.355-1.097c.56 0 1.123-.01 1.685 0 .668.015.775-.462.666-.916-.012-.048-.038-.091-.047-.139-.279-1.503-1.914-2.13-3.203-1.449-.995.526-1.174 1.463-1.109 2.36 0 .053.152.133.237.136.586.014 1.178.007 1.77.007zm-31.85 1.097c-.69 0-1.382.008-2.072 0-.221 0-.273.071-.288.288-.105 1.679 1.077 2.494 2.432 2.604a3.21 3.21 0 0 0 2.037-.511c.542-.345.71-.33 1.043.059.266.31.249.526-.02.843-.355.415-.829.61-1.327.766-.86.27-1.775.306-2.654.107-1.687-.378-3.107-1.585-3.096-3.597 0-.651.024-1.302 0-1.953-.073-1.672 1.058-3.039 2.486-3.552 1.692-.608 3.607.017 4.512 1.54.465.783.63 1.628.413 2.52-.1.415-.4.77-.888.803-.855.06-1.713.077-2.569.113l-.01-.03zm-2.33-1.114c.08.006.157.016.237.016h3.368c.614 0 .779-.201.718-.745a3.075 3.075 0 0 0 -.109-.537c-.423-1.462-2.142-1.848-3.253-1.153-.91.57-1.073 1.43-.96 2.42z" fill="#ececec"/><path d="m39.367 13.992c-.681 0-1.362.008-2.041 0-.23 0-.295.073-.31.305-.103 1.657 1.073 2.457 2.412 2.572a3.166 3.166 0 0 0 1.977-.464 3.01 3.01 0 0 1 .355-.198.572.572 0 0 1 .761.196c.223.294.237.564.008.835-.356.424-.83.633-1.34.792a5.11 5.11 0 0 1 -2.711.1c-1.23-.28-2.224-.92-2.762-2.101a3.498 3.498 0 0 1 -.278-1.217c-.045-.757-.017-1.518-.02-2.277 0-1.593.79-2.693 2.181-3.358 1.96-.938 4.318-.024 5.076 1.941.264.634.313 1.336.141 2-.125.459-.427.77-.914.801-.844.057-1.691.076-2.538.11zm-2.298-1.104h1.283c.809 0 1.617 0 2.426-.006.426 0 .603-.181.592-.592a2.986 2.986 0 0 0 -.134-.777c-.338-1.043-1.674-1.687-2.698-1.317-1.172.418-1.725 1.418-1.469 2.692zm-8.816-.721c0 .76.008 1.52 0 2.279a3.812 3.812 0 0 1 -2.841 3.67c-2.177.616-4.38-.954-4.694-3.003a6.1 6.1 0 0 1 -.076-.88c-.008-1.5 0-2.999 0-4.499 0-.418.14-.63.487-.75.383-.133.813-.04 1.01.266.082.154.121.328.112.502.008 1.55 0 3.098.007 4.646 0 .958.424 1.69 1.26 2.14 1.086.58 2.476.031 2.908-1.144.132-.358.203-.736.21-1.118.025-1.53.01-3.057.012-4.587 0-.498.277-.762.79-.766.514-.003.815.282.816.785zm-14.706.117v2.22c.008 1.494-.72 2.567-1.976 3.27-1.993 1.117-4.531.15-5.326-2.002a3.7 3.7 0 0 1 -.229-1.197c-.025-1.648-.012-3.295-.01-4.942 0-.434.31-.71.788-.71.454 0 .81.31.81.71v4.942c.005 1.208 1.089 2.24 2.292 2.195.797-.03 1.678-.699 1.91-1.483.081-.27.124-.552.127-.835.011-1.58.005-3.157.007-4.735 0-.384.148-.61.473-.727.393-.143.82-.07 1.028.212.07.115.103.249.097.383.013.905.01 1.802.01 2.7z" fill="#a0cee0"/><path d="m47.29 15.62c.188-.49.38-.979.562-1.471.37-.998.733-1.998 1.103-2.996.237-.645.489-1.288.73-1.932.088-.237.27-.367.499-.308.3.073.586.191.85.35.237.144.19.425.106.644-.395 1.035-.808 2.064-1.215 3.095l-1.42 3.6c-.142.355-.28.71-.408 1.077-.167.466-.66.692-1.163.552-.31-.09-.439-.315-.542-.583l-1.065-2.753c-.474-1.211-.954-2.42-1.429-3.63-.168-.433-.323-.871-.492-1.303-.183-.474-.119-.689.305-.91a1.42 1.42 0 0 1 .535-.144c.407-.028.504.06.643.42.364.94.694 1.894 1.043 2.84.426 1.152.86 2.303 1.291 3.454l.068-.002zm25.392-2.088c.05-.636.06-1.277.158-1.906.177-1.125.767-1.997 1.834-2.434 1.44-.592 2.88-.572 4.237.277.438.274.584.65.336 1.081-.249.43-.516.51-.918.243a2.95 2.95 0 0 0 -1.894-.516c-.904.061-1.617.417-1.954 1.302-.093.259-.141.532-.144.807-.02.75-.032 1.5 0 2.25.055 1.316.76 2.038 2.117 2.14.76.059 1.414-.195 2.044-.583.392-.237.911.058.971.522.054.406-.169.656-.473.855-.925.612-1.952.75-3.03.636-.733-.076-1.42-.294-2.005-.765a3.257 3.257 0 0 1 -1.008-1.49c-.287-.786-.212-1.604-.271-2.42z" fill="#ececec"/><path d="m15.248 11.028v-4.556c0-.474.293-.743.785-.741.513 0 .81.28.81.759 0 .72.008 1.44 0 2.16 0 .207.064.275.27.272.662-.01 1.323-.007 1.983 0a.65.65 0 0 1 .557.994.474.474 0 0 1 -.451.267c-.69-.012-1.382 0-2.072-.008-.224 0-.287.072-.285.289.007 1.627 0 3.255.007 4.883 0 .932.498 1.249 1.255 1.308.293.022.591.007.886.013.402.01.682.25.71.606.035.454-.163.759-.598.787-.964.062-1.928.064-2.79-.482a2.015 2.015 0 0 1 -.947-1.388 6.792 6.792 0 0 1 -.118-1.135c-.014-1.34-.002-2.685-.002-4.028z" fill="#a0cee0"/><path d="m82.325 10.738v6.57c0 .515-.28.78-.805.77-.507-.009-.798-.295-.8-.787 0-4.37-.001-8.74-.005-13.108 0-.396.175-.624.512-.744.338-.12.876.027 1.018.278a.958.958 0 0 1 .076.454c.005 2.188.006 4.377.004 6.567z" fill="#ececec"/><path d="m31.457 10.208c.4-.465.81-.872 1.353-1.135.601-.293 1.239-.307 1.878-.248.355.033.552.404.516.843a.646.646 0 0 1 -.638.606c-.48.01-.967-.043-1.42.168-1 .46-1.54 1.263-1.57 2.336a62.045 62.045 0 0 0 0 4.38c.023.675-.524 1.065-1.137.883-.282-.084-.465-.245-.498-.547a2.71 2.71 0 0 1 -.016-.295v-7.427c0-.692.473-1.014 1.124-.78a.553.553 0 0 1 .417.57c-.013.214-.01.43-.01.646z" fill="#a0cee0"/><path d="m69.632 13.48v-3.846c0-.474.26-.705.77-.71.508-.007.828.272.828.71v7.718c0 .432-.336.74-.817.722-.44-.015-.801-.204-.79-.727.025-1.288.009-2.58.009-3.868z" fill="#ececec"/><g fill="#a0cee0"><path d="m40.807 6.9c-.355-.017-.53-.228-.644-.488-.129-.293.057-.512.237-.702.473-.5.947-1.012 1.469-1.47.449-.397.428-.884 0-1.278-.521-.473-1.011-.983-1.496-1.494-.19-.197-.347-.43-.177-.737.146-.265.347-.437.655-.377.16.036.307.115.425.23.85.841 1.693 1.69 2.53 2.547.293.301.293.668 0 .971-.843.859-1.694 1.71-2.551 2.552-.122.114-.299.166-.448.245z"/><path d="m37.893 6.897a.646.646 0 0 1 -.582-.396.61.61 0 0 1 .118-.71c.537-.544 1.073-1.09 1.608-1.635.407-.416.407-.681 0-1.108-.52-.535-1.051-1.065-1.569-1.598-.346-.362-.268-.828.16-1.05.236-.128.507-.07.764.185.652.65 1.302 1.302 1.95 1.96.192.196.392.384.577.586.29.316.31.611.018.915-.852.885-1.715 1.759-2.588 2.621-.116.115-.303.155-.456.23zm32.264-5.99c1.572 0 2.76.355 3.758 1.237.307.272.346.543.132.793-.142.166-.493.245-.79-.018-1.024-.9-2.257-1.1-3.552-.954a3.892 3.892 0 0 0 -2.194.965c-.262.237-.566.226-.76.008-.215-.237-.195-.509.093-.766a4.915 4.915 0 0 1 3.313-1.265zm.254 6.979a1.616 1.616 0 0 1 -1.648-1.61 1.657 1.657 0 0 1 1.624-1.637c.954-.025 1.657.818 1.657 1.629-.015.861-.722 1.66-1.633 1.618zm-.547-1.604c0 .337.223.566.54.56a.558.558 0 0 0 .546-.576.54.54 0 0 0 -.56-.556c-.335.004-.534.223-.53.572z"/><path d="m70.453 2.622c.877.034 1.722.263 2.416.906.25.236.295.56.104.771-.212.237-.49.23-.781 0a2.733 2.733 0 0 0 -2.477-.552 2.575 2.575 0 0 0 -1.133.568c-.259.226-.567.216-.763 0a.544.544 0 0 1 .08-.764c.71-.659 1.565-.906 2.554-.929z"/></g></svg>
